X:259
T:Joe Foster's Jig 
C:Joe Buchanan's Scottish Tome - Page 307.1
I:307 1
C:Lindsay Ross
R:Jig
Z:Carl Allison
L:1/8
M:6/8
K:A
E | "A"A3 "F#m"A2 "E7"B | "A" cdc BAB | "F#m"c2 f f2 g |"F#m" aff f2 g |
"D"a3 a2 f | "A"efe cde | "D"d2 F "Bm"B2 A | GFE DCB, |
"A"A,3 "F#m"A2 "E7"B |  "A" cdc BAB | "F#m"c2 f f2 g |"F#m" aff f2 g |
"D"a3 a2 f | "A"efe "F#m"cde | "Bm"d2 F "E7"GAB | "A"BAA A3 |]
"A"Ace "D"A2 f |"A" efe "E7"dcB |"A" Ace aga |"Bm" bff f3 |
"Bm"Ace "D"a2 f | "E"efe "E7"dcB | "A"Ace aga | "E7" bff f2 g |
"D"agb "Bm"agf | "A"efe "F#m"cde | "Bm"d2 F "E7"GAB | "A"BAA A2 |]

